X:3327
T:Kitty's Rambles
O:england
R:double jig
M:6/8
L:1/8
K:D
G|FED =cBA|dcd efg|fed =cAF|GFG AFD|
FED =c2A|dcd efg|fed =cAG|Add d2:|
A|dfa dfa|dfa afd|=ceg =ceg|=ceg gfe|
fef gfg|afd efg|fed =cAG|Add d2:|


